X: 2194
M: C
L: 1/8
K: F
(AF)F2 (BG)G2 | (AF)F2 EGEC |\
(AF)F2 BAGB | AFGE F3 :|\
e |\
(fc)c2 Acfa |
bagf egec |\
[1 (fc)c2 Acfa bgfe f3 :|\
[2 dfeg fagf | ecde [ff2]d[cf] :|


